!!!OTL: Abendreihen.
!!!ARE: Europa, Mitteleuropa, Deutschland
!!!SCT: A0283A
!!!TXL: @@DE
!!!YEM: Copyright 1995, estate of Helmut Schaffrath.
**kern	**text
*M4/2	*
*met(c|)	*
*clefC4	*
*k[]	*
*G:ion	*
=1	=1
!LO:TX:a:t=jon. tr. (G dur.)	!
{0G	Wie
=2	=2
1B	ſteht
1A	ir
=3	=3
1B	al-
1c	-le
=4	=4
1d	hie
2r	.
2e	und
=5	=5
1d	war-
1B	-tet
=6	=6
0G}	mein,
=7	=7
{0G	Wie
=8	=8
1B	ſteht
1A	ir
=9	=9
1B	al-
1c	-le
=10	=10
1d	hie
2r	.
2e	und
=11	=11
1d	war-
1B	-tet
=12	=12
1G}	mein,
{1d	und
=13	=13
1B	meint,
1A	ich
=14	=14
1G	ſol
1D	ewr
=15	=15
*lig	*
2A	vor-
2B	.
*Xlig	*
2c	-ſing-
2B	-rin
=16	=16
0G}	ſein.
=17	=17
1B	meint,
1A	ich
=18	=18
1G	ſol
1D	ewr
=19	=19
*lig	*
2A	vor-
2B	.
*Xlig	*
2c	-ſing-
2B	-rin
=20	=20
0G/ll}	ſein.
==	==
!!!GTL: Tanz- und Kranzlieder
!!!AGN: Romanze, Ballade, Lied
!! Babst Gsgb 1545 II Bl. 37
!!!ONB: ESAC (Essen Associative Code) Database: ALTDEU
!!!AMT: simple quadruple
!!!AIN: vox
!!!EED: Helmut Schaffrath
!!!EEV: 1.0
!!!RDF**kern: l = terminal long
!!!AMD: Ionian
!!!URL-scan: https://rosdok.uni-rostock.de/mcrviewer/recordIdentifier/rosdok_ppn738218359/iview2/phys_0441.iview2?x=-495.6391625615763&y=319.2625615769066&scale=0.4629418472063854&rotation=0&layout=singlePageLayout&logicalDiv=log_0012
!!!ENC: Anna Maria Matuszewska
!!!EEV: 2024/12/03
*-	*-
